shared/images/iconfont/17-kb-iconfont-clipboard-16.svg

<?xml version="1.0" encoding="UTF-8"?>
<svg width="16px" height="16px" viewBox="0 0 16 16" version="1.1" xmlns="http://www.w3.org/2000/svg" xmlns:xlink="http://www.w3.org/1999/xlink">
    <!-- Generator: sketchtool 57.1 (101010) - https://sketch.com -->
    <title>885962FA-4484-498B-A5C6-74BF7A5E671E</title>
    <desc>Created with sketchtool.</desc>
    <g id="Symbols" stroke="none" stroke-width="1" fill="none" fill-rule="evenodd">
        <g id="17-kb-iconfont-clipboard-16">
            <g>
                <rect id="icon-area" opacity="0" x="0" y="0" width="16" height="16"></rect>
                <path d="M7.5,0 C8.88465677,0 10.3527018,1.44771232 10.4557961,2.8716525 L10.4615603,3.02969549 L12.7,3.02969549 C13.3722816,3.03171037 13.9247716,3.5553977 13.9929334,4.22687385 L14,4.36302882 L14,7 L11.999,7 L12,5 L3,5 L3,14 L12,14 L11.999,13 L14,13 L14,14.6666667 C13.9980222,15.3561806 13.4874335,15.9228292 12.83275,15.9927497 L12.7,16 L2.3,16 C1.62772391,15.9979715 1.07524157,15.4742908 1.00706904,14.8028205 L1,14.6666667 L1,4.36302882 C1.00196451,3.6735092 1.51255966,3.10685282 2.16724891,3.03694332 L2.3,3.02969549 L4.57703239,3.02969549 C4.57703239,1.55693615 6.06405965,0 7.5,0 Z M9.92666667,7.18274109 C10.1045842,7.00625797 10.3701826,6.9520053 10.6030589,7.04457726 C10.8359353,7.13714923 10.9918017,7.3589407 11,7.60940776 L11,7.60940776 L11,9.00274109 L14,9.00274109 C14.5522847,9.00274109 15,9.45045634 15,10.0027411 C15,10.5550258 14.5522847,11.0027411 14,11.0027411 L14,11.0027411 L11,11.0027411 L11,12.3960744 C10.9918017,12.6465415 10.8359353,12.868333 10.6030589,12.9609049 C10.3701826,13.0534769 10.1045842,12.9992242 9.92666667,12.8227411 L9.92666667,12.8227411 L7,10.0027411 Z M7.66666667,1.33333333 C6.930287,1.33333333 6.33333333,1.930287 6.33333333,2.66666667 C6.33333333,3.40304633 6.930287,4 7.66666667,4 C8.40303718,4 9,3.40303718 9,2.66666667 C9,1.930287 8.40304633,1.33333333 7.66666667,1.33333333 Z" id="Combined-Shape" fill="#000000"></path>
            </g>
        </g>
    </g>
</svg>

<svg xmlns="http://www.w3.org/2000/svg" width="16" height="16" viewBox="0 0 16 16">
    <path fill="#000" fill-rule="evenodd" d="M7.5 0c1.385 0 2.853 1.448 2.956 2.872l.006.158H12.7c.672.002 1.225.525 1.293 1.197l.007.136V7h-2.001L12 5H3v9h9l-.001-1H14v1.667a1.325 1.325 0 0 1-1.167 1.326L12.7 16H2.3c-.672-.002-1.225-.526-1.293-1.197L1 14.667V4.363a1.325 1.325 0 0 1 1.167-1.326L2.3 3.03h2.277C4.577 1.557 6.064 0 7.5 0zm2.427 7.183A.63.63 0 0 1 11 7.609v1.394h3a1 1 0 0 1 0 2h-3v1.393a.63.63 0 0 1-1.073.427L7 10.003zm-2.26-5.85a1.333 1.333 0 1 0 0 2.667 1.333 1.333 0 0 0 0-2.667z"/>
</svg>
